svgs/sharp-regular/barcode.svg

<svg xmlns="http://www.w3.org/2000/svg" viewBox="0 0 512 512"><!--! Font Awesome Pro 6.6.0 by @fontawesome - https://fontawesome.com License - https://fontawesome.com/license (Commercial License) Copyright 2024 Fonticons, Inc. --><path d="M48 32L0 32 0 480l48 0L48 32zm80 0L96 32l0 448 32 0 0-448zm80 0l-48 0 0 448 48 0 0-448zm112 0l-48 0 0 448 48 0 0-448zm144 0l0 448 48 0 0-448-48 0zm-64 0l0 448 32 0 0-448-32 0z"/></svg>

<svg xmlns="http://www.w3.org/2000/svg" viewBox="0 0 512 512"><!--! Font Awesome Pro 6.4.2 by @fontawesome - https://fontawesome.com License - https://fontawesome.com/license (Commercial License) Copyright 2023 Fonticons, Inc. --><path d="M48 32H0V480H48V32zm80 0H96V480h32V32zm80 0H160V480h48V32zm112 0H272V480h48V32zm144 0V480h48V32H464zm-64 0V480h32V32H400z"/></svg>
